X:1
T:Ecce anima mea - Morales
T:James Gibb editions
T:#
%%score [ 1 2 3 4 ]
L:1/8
Q:1/4=100
M:4/4
K:C
V:1 treble nm="Soprano" snm="S"
V:2 treble nm="Alto" snm="A"
V:3 treble-8 nm="Tenor" snm="T"
V:4 bass nm="Bass" snm="B"
V:1
"^Prima pars""^Cristóbal de Morales\n(1500-53)""^Ecce, amica mea" z8 | z8 | z8 | z8 | z4 A4 | %5
w: ||||Ec-|
 A2 A2 c4 | d4 (f4- | f2 ed e2 d2- | dcBA B4) |[M:4/4] A4 z4 | z2 d2 d2 c2 | d4 A4 | z2 A4 G2 | %13
w: ce a- mi-|ca me\-|||a,|co- lum- ba|me- a,|spe- ci-|
 A2 A2 (d4 | c2 A2 c3 d) | e4 A4 | z4 A2 d2- | d2 c2 (f2 e2- | ed d4 ^c2) | d8 | z2 A4 A2 | %21
w: o- sa me\-||* a,|for- mo\-|* sa me\- *||a,|ve- nit|
 c3 d e2 A2 | (c3 d e2 f2- | f2 e2 (f4- | f2 ed c4) | A2 B2 c2 d2 | B4 A4- | A8 | A4 z4 | z8 | %30
w: sa- li- ens in|mon\- * * *|* ti- bus||trans- i- li- ens|col- les.||||
 z2 e3 e e2 | e2 e2 c2 A2 | c4 B4) | A2 (c3 B A2- | A2) G2 A4- | A4 z2 d2 | d2 c2 A2 c2 | %37
w: Si- mi- lis|est di- lec- ta|me\- *|a ca- * *|* pre- e|* hy-|nu- lo- que cer-|
 (B3 G c2 B2- | BA A4 ^G2) | A4 z2 A2 | A4 A2 A2 | (c3 d e2 f2- | fe e4 d2) | e4 z2 d2 | c2 A2 c4 | %45
w: vo\- * * *||rum, en|di- lec- ta|me\- * * *||a, for-|mo- sa me-|
 B4 e4- | e2 e2 e2 d2 | e2 f2 d4 | ^c2 A2 A2 A2 | c8 | z8 | z4 z2 A2 | A2 A2 c2 e2- | %53
w: a. Stat|* post pa- ri-|e- tem no-|strum re- spi- ci-|ens||pro-|spi- ci- ens per|
 e2 (d2 c2 BA) | B4 A4 | A8 | A4 c4 | c4 B4- | B4 A2 c2 | c2 B2 (A4- | A2 GF G4) | A8- | A8 | z8 | %64
w: * can\- * * *|ce- los,|en|di- lec-|tus me\-|* us lo-|qui- tur mi\-||hi:|||
 z4 z2 A2 | c2 c2 (B4 | A2 c3 dec | d2 G2) A4 | z8 | z2 G2 d2 d2 | c4 A2 (B2- | BA) (A4 ^G2) | A8 | %73
w: co-|lum- ba me\-||* * a,||for- mo- sa|me- a, et|* * ve\- *|ni,|
 z8 | z8 | z2 A2 A2 G2 | c4 B2 (A2- | AGFE) F4 | E4 z4 | z2 A4 G2 | c4 B2 A2 | A2 (d3 c) (c2- | %82
w: ||iam e- nim|hi- ems trans\-|* * * * i-|it,|im- ber|ab- i- it|et re\- * ces\-|
 c2 B2) c4 | c8 | c4 c4 | f6 e2 | d4 ^c4- | c4 z4 |[Q:1/4=98] (d6[Q:1/4=95] ^c[Q:1/4=95]B) | %89
w: * * sit,|ve-|ni, co-|lum- ba|me- a,||ve\- * *|
[Q:1/4=93] ^c4[Q:1/4=91] d4- |[Q:1/4=90] d8 || %91
w: * ni.||
[M:4/4][Q:1/4=90]"^Secunda pars"[Q:1/4=90][Q:1/4=90][Q:1/4=90] d4 d2 d2 | c2 c2 f4 | e4 d2 f2- | %94
w: Flo- res ap-|pa- ru- e-|runt in ter\-|
 f2 e2 (d3 c | de f4 e2) | f8 | z8 | z8 |[M:4/4] z8 | z8 | z2 d2 f3 f | e2 c2 d2 e2 | A2 d2 c2 d2 | %104
w: * ra no\- *||stra,|||||vox tur- tu-|ris au- di- ta|est in ter- ra|
 (dcBA B4 | A3 B c2 B2- | BA A4 G2) | A8- | A8 | z8 | z8 | z2 e4 e2 | e2 e2 d4 | c2 A2 c2 d2 | %114
w: no\- * * * *|||stra,||||vi- ne-|ae flo- ren-|tes de- de- runt|
 e4 (f4 | d2 f4 ed) | c2 (e4 d2 | c2 f3 e d2- | d2 ^c2) d4 | z4 d4- | d4 d4 | c6 c2 | c4 c4 | %123
w: o- do\-||rem su\- *||* * um.|Sur\-|* ge|pro- pe-|ra a-|
 f6 e2 | (d4 ^c4 | d4) A4 | z2 A4 G2 | A2 A2 d4 | c2 c2 c4- | c4 A2 F2 | c6 B2 | (A2 G2 A4 | %132
w: mi- ca|me\- *|* a,|spe- ci-|o- sa me-|a, et ve\-|* ni, co-|lum- ba|me\- * *|
 _B4) A2 f2 | f2 f2 e3 d | c2 (B3 A A2- | A2 ^G2) A4- | A4 z2 d2 | d2 c2 A2 c2 | (B3 G c2 B2- | %139
w: * a in|fo- ra- mi- ni-|bus pe\- * *|* * trae|* in|ca- ver- na ma-|ce\- * * *|
 BA A4) ^G2 | A8 | z2 A2 A2 A2 | A6 A2 | A4 c4- | c2 c2 d4 | G8 | z2 G4 G2 | G2 G2 c2 c2 | %148
w: * * * ri-|ae.|Os- ten- de|fa- ci-|em tu\-|* am mi-|hi,|so- net|vox tu- a in|
 c2 c2 A2 (d2- | dc c4 B2) | c8 | z8 | z8 | z2 e2 e4- | e2 d2 c2 B2 | A4 G4 | z8 | z8 | %158
w: au- ri- bus me\-||is,|||vox e\-|* nim tu- a|dul- cis|||
 z2 G2 d3 d | d2 c2 A2 B2- | B2 (A3 G G2) | A4 z4 | z8 | z2 e2 f3 f | %164
w: et fa- ci-|es tu- a de\-|* co\- * *|ra,||et fa- ci-|
 f2 f2[Q:1/4=98] d2[Q:1/4=95] (e2- | %165
w: es tu- a de\-|
[Q:1/4=93] e[Q:1/4=92]d)[Q:1/4=89] (d3[Q:1/4=87] ^c[Q:1/4=85] c[Q:1/4=84]B/[Q:1/4=84]c/) | %166
w: * * co\- * * * *|
[Q:1/4=84] d8 |] %167
w: ra.|
V:2
 z8 | z8 | z8 | z8 | z8 | z8 | D4 D2 D2 | F4 G2 (B2- | BA A4 ^G2) |[M:4/4] A4 z2 A2 | A2 G2 A4 | %11
w: ||||||Ec- ce a-|mi- ca me\-||a, co-|lum- ba me-|
 D2 F4 E2 | F2 F2 (D4 | E2 F3 EFG) | A8 | z2 E2 A4- | A2 G2 (F3 E/D/ | E4) D2 _B2 | A2 G2 A4 | %19
w: a, spe- ci-|o- sa me\-||a,|for- mo\-|* sa me\- * *|* a, for-|mo- sa me-|
 F4 z2 D2- | D2 D2 F3 G | A4 A2 (c2- | cB A4 GF | G2 G2 F4 | z4 z2 A,2- | A,2 D2 C2 A,2 | B,4 C4 | %27
w: a, ve\-|* nit sa- li-|ens in mon\-||* ti- bus|trans\-|* i- li- ens|col- les.|
 z2 F3 F F2 | E2 C2 E2 F2- | FE) (E4 D2) | E4 z2 A2 | A2 G2 A2 (c2- | cB) A4 G2 | E2 F2 (G2 C2) | %34
w: Si- mi- lis|est di- lec- ta|* * me\- *|a, si-|mi- lis est di\-|* * lec- ta|me- a ca\- *|
 D4 E4 | z2 A2 A2 G2 | A4 D2 (A2 | E2 G3 F G2 | A2 D2) (E4- | E4 F4- | F4) z2 E2 | E2 E2 A4 | %42
w: pre- e|hy- nu- lo-|que cer- vo\-||* * rum,||* en|di- lec- ta|
 (G2 A2 F4) | E2 A2 A2 G2 | A4 E2 (A2- | AGGF) G2 G2- | G2 G2 G2 G2 | G2 A2 (F3 G) | A2 E2 E2 F2 | %49
w: me\- * *|a, for- mo- sa|me- a, me\-|* * * * a. Stat|* post pa- ri-|e- tem no\- *|strum re- spi- ci-|
 A4 z4 | z8 | z4 z2 F2 | F2 F2 A2 A2 | (G2 B3 A A2- | A2) ^G2 A4 | F8 | F4 A4 | A4 G4- | G4 E2 E2 | %59
w: ens||pro-|spi- ci- ens per|can\- * * *|* ce- los,|en|di- lec-|tus me\-|* us lo-|
 F2 G2 (E2 F2- | FEDC D4 | ^C4 D4) | A,2 A,4 A,2 | C3 D E2 E2 | G2 G2 F4 | E8 | z4 z2 E2 | %67
w: qui- tur mi\- *|||hi: Sur- ge|pro- pe- ra a-|mi- ca me-|a,|for-|
 G2 G2 (F2 E2 | F2 E3 D D2- | D2) C2 F4 | (E3 D EF G2 | E2 F2) E4 | z2 E2 E2 E2 | A4 (G2 FE | %74
w: mo- sa me\- *||* a, et|ve\- * * * *|* * ni,|iam e- nim|hi- ems * *|
 G2) (F3 E E2- | E2) D2 E4- | E4 z4 | z4 z2 D2- | D2 C2 F2 (E2- | ED/C/ D2) E2 E2- | %80
w: * trans\- * *|* i- it,||im\-|* ber ab- i\-|* * * * it, et|
 E2 C2 (G2 E2- | EF G2 A4 | G4) (E3 F | G4) z4 | A4 A2 A2 | A4 A2 (A2- | AG/F/ G2) A4- | A4 B4- | %88
w: * re- ce\- *||* sit, *||ve- ni, co-|lum- ba me\-|* * * * a,|* ve\-|
 B4 A4- | A8 | A8 ||[M:4/4] z8 | A4 A2 A2 | G2 G2 _B4 | A4 F2 _B2- | B2 A2 (G4 | F2 A4 GF | %97
w: * ni.||||Flo- res ap-|pa- ru- e-|runt in ter\-|* ra no\-||
 ED E2) C4 | z8 |[M:4/4] z8 | z4 z2 G2 | _B3 B A2 F2 | A2 A2 D2 A2 | F3 G (A2 B2- | BA A4 G2 | %105
w: * * * stra,|||vox|tur- tu- ris au-|di- ta est in|ter- ra no\- *||
 F3 E/D/ EF G2 | E2 F2 E4 | EDCB, C3 D) | E8- | E4 z2 A2- | A2 A2 A2 A2 | G4 E4 | z2 E2 F2 G2 | %113
w: |||stra,|* vi\-|* ne- ae flo-|ren- tes|de- de- runt|
 A4 F4 | E2 (A4 GF | G2 A4 GF) | E2 C2 F2 G2 | A4 F2 G2 | A4 F4 | z4 A4- | A4 A4 | A6 A2 | A4 F4 | %123
w: o- do-|rem su\- * *||um, de- de- runt|o- do- rem|su- um.|Sur\-|* ge|pro- pe-|ra a-|
 F2 (A4 GF) | (A2 G2) A4 | z2 F4 E2 | F2 F2 (D4 | E2 F4 G2) | A2 A2 G4- | G4 F4 | A4 G4 | %131
w: mi- ca * *|me\- * a,|spe- ci-|o- sa me\-||a, et ve\-|* ni,|co- lum-|
 C2 (G3 F F2- | F2 E2) F4 | A4 A2 A2 | G3 F E2 F2 | D4 E4 | z2 A2 A2 G2 | A4 D2 (A2 | E2 G3 F G2 | %139
w: ba me\- * *|* * a|in fo- ra-|mi- * ni- bus|pe- trae|in ca- ver-|na ma- ce\-||
 A2) D2 E4 | z2 C2 C2 D2 | F6 E2 | E4 E4 | E4 (A4- | A2 G2 F4) | E8- | E4 z2 C2- | C2 B,2 E2 E2 | %148
w: * ri- ae.|Os- ten- de|fa- ci-|em tu-|am mi\-||hi,|* so\-|* net vox tu-|
 F2 F4 D2 | E2 F2 D4 | C4 z4 | G4 G3 G | F2 E4 D2 | E2 G2 A4 | A2 A2 E2 (E2- | ED/C/ D2) E2 E2 | %156
w: a in au-|ri- bus me-|is,|vox e- nim|tu- a dul-|cis, vox e-|nim tu- a dul\-|* * * * cis et|
 F3 F F2 F2 | D2 (E3 D) (D2- | D2 C2 F3 G | A6 G2 | F2 E2) D2 D2 | F3 F F2 F2 | D2 (E3 D) (D2- | %163
w: fa- ci- es tu-|a de\- * co\-|||* * ra, et|fa- ci- es tu-|a de\- * co\-|
 D2 C2) D4 | A4 (G4 | F2 G2 A4) | F8 |] %167
w: * * ra,|de- co\-||ra.|
V:3
 A4 A2 A2 | c4 d4 | (f6 ed | e2 d3 cBA | B4 A3 B | c2 d2 e2 f2- | f2 ed a4) | d4 z2 d2 | f2 f2 e4 | %9
w: Ec- ce a-|mi- ca|me\- * *|||||a, co-|lum- ba me-|
[M:4/4][K:treble-8] A2 e4 c2 | d2 d2 e4 | f4 z4 | z4 z2 d2- | d2 c2 d2 d2 | f4 e2 e2 | %15
w: a, spe- ci-|o- sa me-|a,|spe\-|* ci- o- sa|me- a, for-|
 c2 (e3 d) (d2- | dccB) d4 | z2 a2 a2 g2 | (f2 ed e4 | d4) f4 | (fedc d4) | A8 | z4 z2 A2 | c6 c2 | %24
w: mo- sa * me\-|* * * * a,|for- mo- sa|me\- * * *|* a,|me\- * * * *|a,|trans-|i- li-|
 (d3 e f2) (ed | ef g3 f f2- | f2 e2 f3 e | d2 c2 d2) c2- | c2 (c4 BA) | B2 c2 A4 | (B4 c4) | %31
w: ens * * col\- *|||* * * les.|* trans\- * *|i- li- ens|col\- *|
 B4 z2 e2- | ee e2 e2 e2 | c2 A2 c2 c2 | B4 (A3 B) | c2 A2 d2 d2 | e4 f2 (e2- | ed/c/ d2 e2 d2- | %38
w: les. Si\-|* mi- lis est di-|lec- ta me- a|ca- pre\- *|e hy- nu- lo-|que cer- vo\-||
 dc A2 B4) | A4 (c3 B) | (c2 d2 c2 A2) | a4 z4 | z4 a4 | a2 a2 d4 | e4 z2 e2 | e2 e2 B2 c2- | %46
w: |rum, cer\- *|vo\- * * *|rum,|for-|mo- sa me-|a. Stat|post pa- ri- e\-|
 c2 B2 (B3 A | B2 c2 d4) | e2 !courtesy!=c2 c2 c2 | f4 (e3 d | e)f (g3 f f2- | f2) e2 (f2 d2) | %52
w: * tem no\- *||strum re- spi- ci-|ens per *|* fe- ne\- * *|* stram pro\- *|
 c2 d2 (A3 B | c2 d2 (e2 f2) | e4 A4 | c8 | c4 f4- | f2 e2 d4- | d4 c4 | z2 d2 d2 c2 | d8 | %61
w: spi- ci- ens *|* per can\- *|ce- los,|en|di- lec\-|* tus me\-|* us|lo- qui- tur|mi\-|
 e2 f3 ed!courtesy!=c | d4) c4 | z8 | z8 | z2 e2 g2 g2 | f4 e2 A2 | d2 d2 (c4- | c2 B2 A4 | %69
w: |* hi:|||co- lum- ba|me- a, for-|mo- sa me\-||
 G4) A4 | z2 A4 (d2- | dc cB/A/ B4) | c4 A2 (c2- | cBcd e4) | z8 | z2 A2 c2 B2 | (ABcd e)d (f2- | %77
w: * a,|et ve\-||ni, et ve\-|* * * * ni,||iam e- nim|hi\- * * * * ems trans\-|
 fe e4 d2) | e4 c4 | z2 A2 c2 B2 | A2 e4 A2 | (c2 d2) (e2 f2 | d4) c4 | z4 f4- | f4 f4 | c4 c2 c2 | %86
w: |i- it,|im- ber ab-|i- it et|re\- * ces\- *|* sit,|ve\-|* ni,|co- lum- ba|
 d4 e4 | (f4 g4- | g2) (f2 e3 d | e4) d4- | d8 ||[M:4/4][K:treble-8] z8 | z8 | z8 | z8 | z8 | %96
w: me- a,|et *|* ve\- * *|* ni.|||||||
 d4 d2 d2 | c2 c2 f4 | e2 d4 (d2 |[M:4/4][K:treble-8] c3 d e2 f2- | fe d4 c2 | d8) | A4 z4 | %103
w: tem- pus pu-|ta- ti- o-|nis ad- ve\-||||nit,|
 z4 z2 d2 | f3 f e2 e2 | c2 d2 A2 d2 | c2 d2 (B2 c2- | cd e2) A4 | z2 A4 A2 | c3 c d2 f2 | %110
w: vox|tur- tu- ris au-|di- ta est in|ter- ra no\- *|* * * stra,|fi- cus|pro- tu- lit gros-|
 e2 (e3 d d2 | e3 d cB c2 | A2 c2 B4) | A4 z4 | z8 | z2 A2 A2 B2 | c4 d4 | (e2 f2) (d4 | e4) d4 | %119
w: sos su\- * *|||os,||de- de- runt|o- do-|rem * su\-|* um.|
 z4 f4- | f4 f4 | f6 f2 | f4 z2 c2 | c2 c2 d4- | d4 e4 | z8 | z4 z2 d2- | d2 c2 d2 d2 | %128
w: Sur\-|* ge|pro- pe-|ra a-|mi- ca me\-|* a,||spe\-|* ci- o- sa|
 e2 f2 e2 (f2- | fe/d/ e2) c4 | f4 e4- | e2 d2 (c4 | _B4) c4 | z2 d2 c2 A2 | (e3 d) c2 d2 | %135
w: me- a, et ve\-|* * * * ni,|co- lum\-|* ba me\-|* a|in fo- ra-|mi\- * ni- bus|
 (B4 A3 B) | c2 A2 d2 d2 | e4 f2 (e2- | ec d2 e2 d2- | dc) A2 B4 | z2 A2 A2 A2 | d6 c2 | c4 c4 | %143
w: pe\- * *|trae in ca- ver-|na ma- ce\-||* * ri- ae.|Os- ten- de|fa- ci-|em tu-|
 c2 (c4 FG | AB c4 B2) | c4 z2 c2- | c2 c2 c2 c2 | d2 e2 A2 G2 | (A3 B c2) G2 | c4 g4- | g4 g4- | %151
w: am mi\- * *||hi, so\-|* net vox tu-|a in au- ri-|bus * * me-|is, vox|* e\-|
 g2 f2 e2 d2 | (c2 B2 A4) | B2 B2 c4- | c2 A2 (A2 G2) | A4 (B4 | c4) d4 | z8 | z4 z2 d2 | %159
w: * nim tu- a|dul\- * *|cis, vox e\-|* nim tu\- *|a dul\-|* cis||et|
 f3 f f2 e2 | d2 c2 B4 | A2 c2 d3 d | d2 c2 B2 A2 | G4 A2 (d2- | dc c4 B2 | c2 d2) e4 | d8 |] %167
w: fa- ci- es tu-|a de- co-|ra, et fa- ci-|es tu- a de-|co- ra, de\-||* * co-|ra.|
V:4
 z8 | z4 D,4 | D,2 D,2 F,4 | G,2 (_B,3 A, A,2- | A,2 G,2 A,2 F,2- | F,2 E,D,) A,4 | z8 | z8 | z8 | %9
w: |Ec-|ce a- mi-|ca me\- * *||* * * a,||||
[M:4/4] z2 A,2 C2 C2 | B,4 A,4 | z2 D4 C2 | D2 D2 B,4 | A,4 z4 | A,4 A,4- | A,2 G,2 (F,2 E,D, | %16
w: co- lum- ba|me- a,|spe- ci-|o- sa me-|a,|for- mo\-|* sa me\- * *|
 E,4 D,4 | A,4 F,2 G,2 | (A,2 _B,2 A,4) | D,8- | D,8 | z8 | z8 | z2 C,2 F,4- | F,2 G,2 A,2 C2- | %25
w: * a,|for- mo- sa|me\- * *|a,||||trans- i\-|* li- ens col\-|
 C2 B,2 A,2 G,F, | G,4) F,4- | F,4 z2 A,2- | A,A, A,2 A,2 A,2 | G,2 E,2 F,4 | E,4 A,4 | E,4 A,4- | %32
w: |* les.|* Si\-|* mi- lis est di-|lec- ta me-|a ca-|pre- e|
 A,4 z4 | z8 | z2 D2 D2 C2 | A,2 C2 B,4 | A,4 z2 A,2 | A,2 G,2 E,2 G,2 | (F,4 E,4 | %39
w: ||hy- nu- lo-|que cer- vo-|rum, hy-|nu- lo- que cer-|vo\- *|
 A,3 G, F,E, F,2- | F,2 E,D,) A,4- | A,8 | z4 z2 D2 | C2 A,2 B,4 | A,8 | z4 E,4 | %46
w: |* * * rum,||for-|mo- sa me-|a.|Stat|
 E,2 E,2 E,2 G,2- | G,2 F,2 _B,4 | A,4 z2 F,2 | F,2 F,2 A,2 C2- | C2 B,2 (A,2 G,F, | G,4) F,4- | %52
w: post pa- ri- e\-|* tem no-|strum re-|spi- ci- ens per|* fe- ne\- * *|* stram,|
 F,4 z4 | z8 | z8 | F,8 | F,4 F,4 | F,4 G,4- | G,4 A,2 A,2- | A,2 G,2 A,4 | _B,8 | A,4 z2 D,2- | %62
w: |||en|di- lec-|tus me\-|* us lo\-|* qui- tur|mi-|hi: Sur\-|
 D,2 D,2 F,3 G, | A,2 A,2 C2 C2 | B,4 A,4- | A,4 z4 | z2 A,2 C2 C2 | B,4 A,4- | A,2 G,2 (F,2 E,D, | %69
w: * ge pro- pe-|ra a- mi- ca|me- a,||for- mo- sa|me- a,|* et ve\- * *|
 E,4) D,4 | A,2 (C4 G,2 | A,4 E,4) | A,4 z2 A,2 | A,2 A,2 C4 | B,2 (A,3 G,F,E,) | F,4 E,4 | z8 | %77
w: * ni,|et ve\- *||ni, iam|e- nim hi-|ems trans\- * * *|i- it,||
 z4 D,4 | A,2 (A,3 G,F,E, | F,2) F,2 E,4 | A,4 (G,2 C2- | C2 B,2 A,2 F,2 | G,4) C4- | C4 F,4- | %84
w: im-|ber ab\- * * *|* i- it,|et re- ce\-||* sit,|* ve\-|
 F,4 F,4 | F,4 A,2 A,2 | B,4 A,4 | z4 (G,4- | G,4 A,4- | A,4) D,4- | D,8 ||[M:4/4] z8 | z8 | z8 | %94
w: * ni,|co- lum- ba|me- a,|ve\-||* ni.|||||
 z8 | z8 | z8 | A,4 A,2 A,2 | G,2 G,2 _B,4 |[M:4/4] A,2 (A,3 G, F,E,) | (F,2 G,2 E,4 | %101
w: |||tem- pus pu-|ta- ti- o-|nis ad\- * * *|ve\- * *|
 G,3 F,) D,4 | z8 | z8 | z4 z2 E,2 | F,2 D,2 A,2 G,2 | A,2 D,2 E,4 | A,4 z2 A,2- | A,2 A,2 C3 B, | %109
w: * * nit|||au-|di- ta est in|ter- ra no-|stra, fi\-|* cus pro- tu-|
 A,2 A,2 G,2 (A,2- | A,G,F,E, F,4) | E,4 z4 | z8 | z8 | z8 | z2 D,2 F,2 G,2 | A,4 _B,4 | %117
w: lit gros- sos su\-||os,||||de- de- runt|o- do-|
 (A,2 F,2) (_B,4 | A,4) D,4 | z4 D,4- | D,4 D,4 | F,6 F,2 | F,4 F,4 | F,2 F,2 _B,4- | B,4 A,4 | %125
w: rem * su\-|* um.|Sur\-|* ge|pro- pe-|ra a-|mi- ca me\-|* a,|
 z2 D4 C2 | D2 D2 B,4 | A,2 F,2 _B,4 | A,2 F,2 C4- | C4 F,4 | F,4 C4- | C2 B,2 (A,2 G,F, | %132
w: spe- ci-|o- sa me-|a, et ve-|ni, et ve\-|* ni,|co- lum\-|* ba me\- * *|
 G,4 F,4- | F,2 E,D, A,4) | E,4 z4 | z2 D2 D2 C2 | A,2 C2 B,2 B,2 | A,4 z2 A,2 | A,2 G,2 E,2 G,2 | %139
w: ||a,|in ca- ver-|na ma- ce- ri-|ae, in|ca- ver- na ma-|
 F,2 F,2 (E,4 | A,4) z2 D,2 | D,2 D,2 A,4- | A,2 A,2 A,4- | A,4 F,4- | F,2 E,2 D,4 | C,4 z2 C,2- | %146
w: ce- ri- ae.|* Os-|ten- de fa\-|* ci- em|* tu\-|* am mi-|hi, so\-|
 C,2 C,2 C,2 C,2 | G,4 z2 C,2 | F,4 F,2 B,2 | (A,2 F,2) G,4 | z4 C4 | C6 B,2 | A,2 G,2 F,4 | %153
w: * net vox tu-|a in|au- ri- bus|me\- * is,|vox|e- nim|tu- a dul-|
 E,2 E,2 A,4- | A,2 D,2 A,2 E,2 | F,4 E,4 | A,4 _B,3 B, | _B,2 A,2 G,2 F,2 | E,4 D,4 | z8 | z8 | %161
w: cis, vox e\-|* nim tu- a|dul- cis|et fa- ci-|es tu- a de-|co- ra,|||
 z2 A,2 _B,3 B, | _B,2 A,2 G,2 F,2 | E,4 D,2 D,2 | F,3 F, G,2 G,2 | A,2 B,2 A,4 | D,8 |] %167
w: et fa- ci-|es tu- a de-|co- ra, et|fa- ci- es tu-|a de- co-|ra.|

